**kern
*MM76
*k[b-e-a-d-]
*M2/2
=1
2f
2g
=2
2a-
2BT
=3
4c
4B-
4A-
4G
=4
4F
4E-
4F
4G
=5
4C
4c
4B-
4A
=6
2B-
2BT
=7
4c
4B-
4A-
4G
=8
2A-
2B-
=9
2c
2d
=10
4c
8d
8e
4c
4e
=11
4f
8e
8f
4c
[4f
=12
4f]
4e
2f
=13
2g
4r
[4e-
=14
4e-]
4d
4e-
4f
=15
4g
4f
4e-
4e
=16
2f
2g
=17
2f
2e
=18
2f
4r
8a-
8g
=19
4f
4b-
4d
4e
=20
4A
2B-
4d-
=21
4c
4B-
4A-
[4c
=22
2c]
2c
=23
2B
4c
4B
=24
2c
2f
=25
2.e-
4e-
=26
4d
4e-
2f
=27
2e-
2r
=28
1r
=29
1r
=30
1r
=31
2f
2g
=32
2a-
2B
=33
4c
4B-
4A-
4G
=34
4F
4C
[2F
=35
4F]
4F
8B-
8A-
8G
8F
=36
8E-
8G
8A-
8B-
2c
=37
8d
8e-
8c
8d
8e
8f
8d
8e
=38
1f
=39
2e-
4f#
4d
=40
4d
4r
2f
=41
2e-
2c
=42
2c
2r
=43
1r
=44
1r
=45
1r
=46
1r
=47
1r
=48
1r
=49
1r
=50
1r
=51
1r
=52
1r
=53
1r
=54
1r
=55
1r
=56
2c
2d
=57
2e-
2F#
=58
4G
4F
4E-
4D
=59
4C
4c
[2B-
=60
2B-]
4e-
4d
=61
4B-
2c
4B
=62
4B-
2A-
[4G
=63
4G]
2F
4E
=64
2F
2r
=65
4c
4B-
2A-
=66
2G
4A-
4B-
=67
2c
4f
4e-
=68
2d
2c
=69
2c
4r
4d-
=70
2d-
4r
4c
=71
2c
4r
4g
=72
4e-
4f
2e-
=73
2e-
2e-
=74
2e-
[2B-
=75
4B-]
4g
4a-
[4b-
=76
4b-]
4a-
[2a-
=77
4a-]
8g
8f
2g
=78
4a-
4g
[2a-
=79
8a-]
8f
4g
4a-
[4b-
=80
4b-]
8a-
8g
2a-
=81
2f
2b-
=82
2cc
2a-
=83
2g
4f
4e
=84
4c
4e-
2d
=85
4c
2c
4D
=86
2d
4e-
4f
=87
2e-
4r
4f
=88
2.g
4d
=89
2e-
2r
=90
1r
=91
1r
=92
1r
=93
1r
=94
1r
=95
1r
=96
1r
=97
1r
=98
1r
=99
1r
=100
1r
=101
1r
=102
2c
2d
=103
2e-
2F#
=104
4G
4F
4E-
4D
=105
8C
8G
8A
8B
[2c
=106
4c]
8B-
8c
4F
4c-
=107
[1B-
=108
4B-]
8A-
8G
2A-
=109
4G
4d-
4d
4e
=110
2f
2g
=111
2a-
2B
=112
4c
4B-
4A-
[4G
=113
2G]
[2F
=114
2F]
[2E-
=115
2E-]
[2D-
=116
2D-]
[2C
=117
2C]
4D-
4F
=118
4E
4d-
4c
4B-
=119
2c
2f
=120
4e-
4g
[2f
=121
4f]
4e-
4d
[4a
=122
4a]
2g
4f
=123
2g
2b
=124
4cc
4b
2cc
=125
2b
2g
=126
2g
4r
4g
=127
4a-
4r
4r
4f
=128
2f
4r
4f
=129
8e-
8f
8e-
8d
8e-
8c
4g
=130
2f
4r
4b-
=131
2a-
4r
4g
=132
2f
4r
4b-
=133
2a-
4r
4b-
=134
2a-
2r
=135
1r
=136
2r
4r
4a-
=137
2g
2g
=138
1f
==
*-
